X:1096
T:Galway Shawl, The
C:Joe Buchanan's Scottish Tome - Page 626.2
I:626 2
Z:Carl Allison
R:Folk
L:1/4
M:3/4
K:G
"G"G | G2 F | E D2- | D3 | D2 G/G/ | G2 A | "Bm"B d2- | d3 | d2 d |
d2 e | "Em"B2 A | G3- | G G B | "A7"A2 G | "D7"E3- | E3- | E2 G |
"G"G2 F | E D2- | D3- | D2 E/F/ | G2 A | "Bm"B d2- | d3 | d2 d |
d2 e | "Em"B2 A | G3- | G G B | "A7"A2 G | "G"G3- | G3- | G3 |

